src/cards/diamonds_9.svg

<svg version="1.1" id="Layer_1" xmlns="http://www.w3.org/2000/svg" xmlns:xlink="http://www.w3.org/1999/xlink" x="0px" y="0px"
	 width="100%" viewBox="0 0 340 500" enable-background="new 0 0 340 500" xml:space="preserve">
<path fill="transparent" opacity="1.000000" stroke="none" 
	d="
M1.000000,196.000000 
	C1.000000,132.018890 1.030860,68.537727 0.912128,5.056847 
	C0.905960,1.758764 1.399975,0.893760 4.941052,0.897755 
	C115.574654,1.022550 226.208450,1.027947 336.842010,0.883427 
	C340.701904,0.878385 341.077209,1.987329 341.075439,5.339662 
	C340.989258,169.124207 340.987701,332.908813 341.083954,496.693329 
	C341.085968,500.141205 340.574066,501.114197 336.809021,501.109619 
	C226.175446,500.974365 115.541641,500.976227 4.908060,501.105896 
	C1.299423,501.110138 0.915135,500.137421 0.918351,496.910217 
	C1.018130,396.773560 1.000000,296.636780 1.000000,196.000000 
z"/>
<path fill="currentColor" opacity="1.000000" stroke="none" 
	d="
M235.794739,439.236755 
	C227.518661,428.630280 217.987854,419.891296 206.524353,412.303925 
	C220.566147,402.892883 232.213303,391.465729 241.635559,377.083191 
	C251.100632,391.333649 262.640106,402.897217 276.882416,412.283051 
	C262.511871,421.666412 251.090424,433.156647 241.767029,447.310913 
	C239.668488,444.474518 237.837204,441.999359 235.794739,439.236755 
z"/>
<path fill="currentColor" opacity="1.000000" stroke="none" 
	d="
M231.759583,214.271500 
	C224.298523,205.883835 216.289810,198.650375 206.488358,192.346741 
	C220.536789,182.888641 232.204681,171.506302 241.612595,157.100906 
	C251.095779,171.247009 262.545349,182.884598 276.878601,192.253983 
	C262.585297,201.668198 251.102600,213.073135 241.861893,227.227188 
	C238.396255,222.777496 235.190506,218.661514 231.759583,214.271500 
z"/>
<path fill="currentColor" opacity="1.000000" stroke="none" 
	d="
M202.410889,250.321640 
	C190.027481,259.087189 180.115891,269.765503 171.664322,282.381744 
	C162.233704,268.307404 150.930603,256.730072 136.483307,247.332153 
	C150.557663,237.886444 162.215164,226.480667 171.623779,212.097427 
	C181.134293,226.221909 192.492477,237.965576 206.866119,247.147827 
	C205.094009,248.405426 203.896637,249.255157 202.410889,250.321640 
z"/>
<path fill="currentColor" opacity="1.000000" stroke="none" 
	d="
M252.312592,103.345535 
	C248.611633,108.060226 245.142456,112.505981 241.537155,117.126183 
	C236.722244,110.303818 231.791519,103.852165 225.979935,98.096161 
	C220.162064,92.333954 213.868729,87.188515 206.492859,82.307961 
	C220.580994,72.896088 232.217239,61.457253 241.649399,47.070446 
	C251.134155,61.318130 262.562897,72.991486 276.939575,82.212723 
	C267.530945,88.437721 259.589722,95.243172 252.312592,103.345535 
z"/>
<path fill="currentColor" opacity="1.000000" stroke="none" 
	d="
M251.413284,324.437622 
	C248.037399,328.775635 244.896240,332.846466 241.540634,337.195251 
	C232.242310,323.303680 220.915100,311.749084 206.508102,302.321686 
	C220.546432,292.880615 232.226959,281.495148 241.640228,267.049225 
	C251.056091,281.299377 262.579041,292.881470 276.835907,302.232544 
	C267.203033,308.750580 258.821136,315.779968 251.413284,324.437622 
z"/>
<path fill="currentColor" opacity="1.000000" stroke="none" 
	d="
M110.268982,168.705841 
	C117.942596,178.004990 126.821686,185.459747 136.817429,192.308044 
	C122.540443,201.666260 111.096085,213.121399 101.703247,227.436966 
	C92.230095,213.252396 80.806091,201.662979 66.475975,192.276764 
	C80.594391,182.920151 92.123535,171.538071 101.475891,157.294800 
	C104.484886,161.203491 107.265556,164.815598 110.268982,168.705841 
z"/>
<path fill="currentColor" opacity="1.000000" stroke="none" 
	d="
M105.256058,442.274353 
	C103.987106,444.030701 102.932671,445.501617 101.627960,447.321625 
	C92.244995,433.313171 80.930038,421.754944 66.516342,412.328888 
	C80.523857,402.867645 92.231270,391.517059 101.615555,377.082031 
	C111.121178,391.222229 122.473473,402.964325 136.945053,412.186401 
	C124.339767,420.585663 113.903091,430.249084 105.256058,442.274353 
z"/>
<path fill="currentColor" opacity="1.000000" stroke="none" 
	d="
M87.696732,64.687668 
	C92.979149,59.313305 97.137207,53.478939 101.713524,47.217285 
	C111.077812,61.255329 122.533638,72.881355 136.897781,82.253517 
	C122.590012,91.656151 111.115105,103.063782 101.709038,117.451973 
	C92.229340,103.276314 80.834213,91.659447 66.551460,82.338493 
	C74.168304,76.938248 81.304520,71.516182 87.696732,64.687668 
z"/>
<path fill="currentColor" opacity="1.000000" stroke="none" 
	d="
M115.431999,284.560608 
	C121.298904,290.525970 127.353172,295.717255 133.974609,300.251617 
	C135.057953,300.993469 137.798706,301.712585 134.918869,303.619751 
	C121.556000,312.469360 110.736420,323.860291 101.633446,337.390717 
	C92.240181,323.230194 80.839119,311.712646 66.495117,302.301910 
	C80.583305,292.907349 92.216492,281.458771 101.638977,267.079559 
	C105.971916,273.425812 110.335457,279.066406 115.431999,284.560608 
z"/>
<path fill="currentColor" opacity="1.000000" stroke="none" 
	d="
M36.741875,36.411438 
	C32.134953,38.506531 27.576641,39.043060 23.001245,37.282192 
	C18.492521,35.546982 16.377274,31.811653 16.050529,27.179462 
	C15.649977,21.500877 17.373907,16.618048 22.483503,13.504015 
	C32.186348,7.590636 43.657993,12.612312 46.099438,23.709393 
	C47.582088,30.448471 47.006645,36.972980 44.103333,43.188808 
	C39.939270,52.103840 28.717073,56.020535 20.417780,51.575584 
	C19.367184,51.012909 17.749210,50.722141 18.457722,48.749363 
	C19.131426,46.873489 20.127983,46.943764 21.898514,47.372982 
	C30.753878,49.519711 34.807152,47.015697 37.393700,37.754501 
	C37.500420,36.984028 37.353714,36.706394 36.741875,36.411438 
z"/>
<path fill="currentColor" opacity="1.000000" stroke="none" 
	d="
M299.336426,476.458710 
	C295.366211,468.128357 295.561707,459.989899 298.919128,452.004120 
	C302.828613,442.705231 313.089142,438.689270 322.120758,442.636230 
	C323.512390,443.244415 325.581665,443.485504 324.797485,445.977936 
	C323.990692,448.542114 322.377747,447.320892 320.882629,446.911713 
	C312.562042,444.634521 306.900238,448.793213 306.031830,457.918701 
	C307.457977,458.592834 308.467072,457.380524 309.614410,457.013062 
	C317.749817,454.407806 325.062225,457.699219 326.860657,464.845459 
	C329.078552,473.658386 323.925476,481.819946 315.261383,482.988037 
	C308.921875,483.842682 303.331879,482.506134 299.336426,476.458710 
z"/>
<path fill="currentColor" opacity="1.000000" stroke="none" 
	d="
M37.219345,76.765358 
	C40.958786,80.761597 44.747543,84.182663 49.384617,87.239273 
	C42.120266,92.042610 36.648609,97.942535 31.632151,104.730438 
	C26.729534,97.906761 21.388195,92.075645 14.006815,87.415710 
	C20.852032,82.399040 26.832861,76.878700 31.511446,69.745186 
	C33.461136,72.152596 35.222569,74.327545 37.219345,76.765358 
z"/>
<path fill="currentColor" opacity="1.000000" stroke="none" 
	d="
M321.721252,401.301575 
	C324.278412,403.402954 326.583038,405.253601 329.170990,407.331787 
	C322.205811,412.074005 316.625275,417.842285 311.650604,424.797119 
	C306.728546,417.774567 301.150543,412.013153 293.993988,407.297485 
	C300.943420,402.443878 306.815704,396.905121 311.479736,389.718048 
	C314.829865,393.762329 317.756104,397.767731 321.721252,401.301575 
z"/>
<path fill="white" opacity="1.000000" stroke="none" 
	d="
M38.035828,30.567013 
	C34.275471,33.833260 30.382820,34.368439 26.672478,31.369894 
	C23.614660,28.898689 23.143944,22.647263 25.327251,18.854261 
	C27.837681,14.492959 33.113926,14.327127 35.838081,18.610573 
	C38.073349,22.125290 38.291203,26.110949 38.035828,30.567013 
z"/>
<path fill="transparent" opacity="1.000000" stroke="none" 
	d="
M36.706665,36.573925 
	C37.291481,35.758633 37.851025,35.683445 37.559097,37.155643 
	C37.234634,37.207561 37.076447,37.032551 36.706665,36.573925 
z"/>
<path fill="white" opacity="1.000000" stroke="none" 
	d="
M314.462677,478.807159 
	C310.625549,479.471039 308.312500,477.840240 306.948700,474.860443 
	C305.273376,471.200043 303.929321,467.087921 305.486633,463.373535 
	C307.134521,459.443176 315.954071,460.804779 318.120697,465.044067 
	C320.449829,469.601349 319.178101,474.889435 314.462677,478.807159 
z"/>
</svg>

<svg xmlns="http://www.w3.org/2000/svg" viewBox="0 0 340 500" xml:space="preserve"><path fill="transparent" d="M1 196C1 132.019 1.03 68.538.912 5.057.906 1.759 1.4.894 4.942.897c110.633.126 221.266.13 331.9-.014 3.86-.005 4.235 1.104 4.233 4.457-.086 163.784-.087 327.569.009 491.353.002 3.448-.51 4.421-4.275 4.417-110.634-.136-221.267-.134-331.9-.004-3.61.004-3.994-.969-3.99-4.196C1.018 396.774 1 296.637 1 196z"/><path fill="currentColor" d="M235.795 439.237c-8.276-10.607-17.807-19.346-29.27-26.933 14.041-9.411 25.688-20.838 35.11-35.22 9.466 14.25 21.005 25.813 35.247 35.2-14.37 9.382-25.792 20.873-35.115 35.027-2.099-2.836-3.93-5.312-5.972-8.074zM231.76 214.272c-7.461-8.388-15.47-15.622-25.272-21.925 14.049-9.458 25.717-20.84 35.125-35.246 9.483 14.146 20.932 25.784 35.266 35.153-14.294 9.414-25.776 20.82-35.017 34.973-3.466-4.45-6.671-8.565-10.102-12.956zM202.41 250.322c-12.383 8.765-22.294 19.444-30.746 32.06-9.43-14.075-20.733-25.652-35.18-35.05 14.074-9.446 25.731-20.851 35.14-35.235 9.51 14.125 20.868 25.869 35.242 35.05a948.5 948.5 0 0 0-4.455 3.175zM252.313 103.346c-3.701 4.714-7.17 9.16-10.776 13.78-4.815-6.822-9.745-13.274-15.557-19.03-5.818-5.762-12.111-10.907-19.487-15.788 14.088-9.412 25.724-20.85 35.156-35.238 9.485 14.248 20.914 25.921 35.29 35.143-9.408 6.225-17.35 13.03-24.626 21.133zM251.413 324.438a3833.025 3833.025 0 0 0-9.872 12.757c-9.299-13.891-20.626-25.446-35.033-34.873 14.038-9.441 25.719-20.827 35.132-35.273 9.416 14.25 20.939 25.832 35.196 35.184-9.633 6.518-18.015 13.547-25.423 22.205zM110.269 168.706c7.674 9.299 16.553 16.754 26.548 23.602-14.277 9.358-25.72 20.813-35.114 35.129-9.473-14.185-20.897-25.774-35.227-35.16 14.118-9.357 25.648-20.739 35-34.982 3.009 3.908 5.79 7.52 8.793 11.41zM105.256 442.274c-1.269 1.757-2.323 3.228-3.628 5.048-9.383-14.009-20.698-25.567-35.112-34.993 14.008-9.461 25.715-20.812 35.1-35.247 9.505 14.14 20.857 25.882 35.33 35.104-12.606 8.4-23.043 18.063-31.69 30.088zM87.697 64.688c5.282-5.375 9.44-11.21 14.017-17.47 9.364 14.037 20.82 25.663 35.184 35.036-14.308 9.402-25.783 20.81-35.189 35.198-9.48-14.176-20.875-25.793-35.158-35.114 7.617-5.4 14.754-10.822 21.146-17.65zM115.432 284.56c5.867 5.966 11.921 11.157 18.543 15.692 1.083.741 3.824 1.46.944 3.368-13.363 8.85-24.183 20.24-33.286 33.77-9.393-14.16-20.794-25.677-35.138-35.088 14.088-9.395 25.721-20.843 35.144-35.222 4.333 6.346 8.696 11.986 13.793 17.48zM36.742 36.411c-4.607 2.096-9.165 2.632-13.74.871-4.51-1.735-6.625-5.47-6.951-10.103-.401-5.678 1.323-10.561 6.433-13.675 9.702-5.913 21.174-.892 23.615 10.205 1.483 6.74.908 13.264-1.996 19.48-4.164 8.915-15.386 12.832-23.685 8.387-1.05-.563-2.669-.854-1.96-2.827.673-1.876 1.67-1.805 3.44-1.376 8.856 2.147 12.91-.357 15.496-9.618.106-.771-.04-1.049-.652-1.344zM299.336 476.459c-3.97-8.33-3.774-16.47-.417-24.455 3.91-9.299 14.17-13.315 23.202-9.368 1.391.608 3.46.85 2.676 3.342-.806 2.564-2.42 1.343-3.914.934-8.321-2.277-13.983 1.881-14.851 11.007 1.426.674 2.435-.538 3.582-.906 8.136-2.605 15.448.686 17.247 7.832 2.218 8.813-2.936 16.975-11.6 18.143-6.34.855-11.93-.482-15.925-6.53zM37.22 76.765c3.739 3.997 7.528 7.418 12.165 10.474-7.265 4.804-12.736 10.704-17.753 17.491-4.902-6.823-10.244-12.654-17.625-17.314 6.845-5.017 12.826-10.537 17.504-17.67 1.95 2.407 3.712 4.582 5.708 7.02zM321.721 401.302c2.557 2.101 4.862 3.952 7.45 6.03-6.965 4.742-12.546 10.51-17.52 17.465-4.922-7.022-10.5-12.784-17.657-17.5 6.95-4.853 12.822-10.392 17.486-17.579 3.35 4.044 6.276 8.05 10.241 11.584z"/><path fill="#fff" d="M38.036 30.567c-3.76 3.266-7.653 3.801-11.364.803-3.057-2.471-3.528-8.723-1.345-12.516 2.51-4.361 7.787-4.527 10.511-.243 2.235 3.514 2.453 7.5 2.198 11.956z"/><path fill="transparent" d="M36.707 36.574c.584-.815 1.144-.89.852.582-.324.052-.483-.123-.852-.582z"/><path fill="#fff" d="M314.463 478.807c-3.837.664-6.15-.967-7.514-3.947-1.676-3.66-3.02-7.772-1.462-11.486 1.648-3.93 10.467-2.57 12.634 1.67 2.329 4.557 1.057 9.845-3.658 13.763z"/></svg>
